X:1
T:Dear Elizabeth
M:2/4
L:1/8
K:A
 C3/2 D/2| E/2E/2 E z c| BA GF| EC A,C| E3/2 E/2 EF| E z C3/2 D/2|\
 E/2E/2 E z e| dcB-A| G/2 A3/2 B z|
M:3/4
 Bc B z C3/2 D/2|
M:2/4
 E/2E/2 E z F| ED C3/2 D/2| E E/2E/2 FG| A2 G3/2 F/2| E/2E/2 E z E|\
 F3/2 E/2 EE| D3/2 D/2 FG| A2 z A| FF F F/2G/2| A3/2 B/2 A F/2F/2|\
 E/2 E3/2 E3/2 C/2| E2 z E/2E/2| FF FG| A/2 B3/2 A3/2 F/2| GG A^A|\
 B z CD| EE EF| E/2D/2 C z/2 C/2C/2 D/2| EE FG| A z GF| EE EE| FE EE|\
 E3/2 E/2 FG| A2||
